svg/current_ac.svg

<svg width="24" height="24" viewBox="0 0 24 24" xmlns="http://www.w3.org/2000/svg">
<path d="M15.9999 7.40001C15.0999 7.40001 14.2999 7.20001 13.4999 6.90001L9.5999 5.00001C8.1999 4.30001 5.8999 4.70001 4.8999 5.80001L3.7999 7.00001L2.3999 5.60001L3.4999 4.40001C5.0999 2.60001 8.2999 2.00001 10.4999 3.10001L14.4999 5.00001C15.8999 5.70001 18.1999 5.30001 19.1999 4.20001L20.1999 3.00001L21.6999 4.30001L20.5999 5.50001C19.4999 6.70001 17.7999 7.40001 15.9999 7.40001ZM14.7999 22.1L13.9999 19.5H9.9999L9.1999 22.1H6.6999L10.5999 11H13.4999L17.3999 22.1H14.7999ZM13.4999 17.5L11.9999 12.7L10.5999 17.5H13.4999Z"/>
</svg>

<svg width="24" height="24" viewBox="0 0 24 24" xmlns="http://www.w3.org/2000/svg"><path d="M16 7.4c-.9 0-1.7-.2-2.5-.5L9.6 5c-1.4-.7-3.7-.3-4.7.8L3.8 7 2.4 5.6l1.1-1.2c1.6-1.8 4.8-2.4 7-1.3l4 1.9c1.4.7 3.7.3 4.7-.8l1-1.2 1.5 1.3-1.1 1.2c-1.1 1.2-2.8 1.9-4.6 1.9zm-1.2 14.7l-.8-2.6h-4l-.8 2.6H6.7L10.6 11h2.9l3.9 11.1h-2.6zm-1.3-4.6L12 12.7l-1.4 4.8h2.9z"/></svg>
